X:1
T: The Ewe Reel
C:
R:Reel
Q: 232
K:G
M:4/4
L:1/8
DG GF DG GE|=F2 AF cF AF|DG GF DG Gg|fd cA BG AF|
DG GF DG GE|=F2 AF cF AF|DG GF DG Gg|fd cA BG G2|
|:g2 bg dg bg|f2 af df af|g2 bg dg bg|ag fa g2 ga|
bg af gd de|fe fd cA GF|dg gf ((3gab) ag|fd cA BG AF:|
DG GF DG GE|=F2 AF cF AF|DG GF DG Gg|fd cA BG AF|
DG GF DG GE|=F2 AF cF AF|DG GF DG Gg|fd cA BG G2||
